X: 23157
T: Le Canal En Octobre
R: barndance
M: 4/4
K: Gmajor
|:GA|B2 B2 cBAG|B2 B2 cBAG|EFGB A3 G|FGEF D2 GA|
B2 B2 cBAG|B2 B2 cBAG|EFGB A3 G|G6:|
|:Bc|d2 d2 cBAG|d2 d2 cBAG|EFGB A3 G|FGEF D2 Bc|
d2 d2 cBAG|d2 d2 cBAG|EFGB A3 G|G6:|

